src/lib/packages/icons/src/assets/filled/money-bill-receive.svg

<svg width="24" height="24" viewBox="0 0 24 24" fill="none" xmlns="http://www.w3.org/2000/svg">
<path d="M18 4H6C4 4 3 5 3 7V15C3 17 4 18 6 18H13.74C13.91 18 14.05 17.86 14.05 17.69C14.05 17.65 14.04 17.61 14.03 17.57C14.01 17.38 14 17.19 14 17C14 14.24 16.24 12 19 12C19.56 12 20.1 12.09 20.6 12.26C20.8 12.32 21 12.19 21 11.98V7C21 5 20 4 18 4ZM6 11.999C5.448 11.999 5 11.551 5 10.999C5 10.447 5.448 9.99902 6 9.99902C6.552 9.99902 7 10.447 7 10.999C7 11.552 6.552 11.999 6 11.999ZM12 14C10.343 14 9 12.657 9 11C9 9.343 10.343 8 12 8C13.657 8 15 9.343 15 11C15 12.657 13.657 14 12 14ZM21.53 18.53L19.53 20.53C19.384 20.676 19.192 20.75 19 20.75C18.808 20.75 18.616 20.677 18.47 20.53L16.47 18.53C16.177 18.237 16.177 17.762 16.47 17.469C16.763 17.176 17.238 17.176 17.531 17.469L18.251 18.189V15C18.251 14.586 18.587 14.25 19.001 14.25C19.415 14.25 19.751 14.586 19.751 15V18.189L20.471 17.469C20.764 17.176 21.239 17.176 21.532 17.469C21.823 17.762 21.823 18.238 21.53 18.53Z" fill="currentColor"/>
</svg>

<svg xmlns="http://www.w3.org/2000/svg" width="24" height="24" fill="none"><path fill="currentColor" d="M18 4H6C4 4 3 5 3 7v8c0 2 1 3 3 3h7.74c.17 0 .31-.14.31-.31 0-.04-.01-.08-.02-.12a5.002 5.002 0 0 1 6.57-5.31c.2.06.4-.07.4-.28V7c0-2-1-3-3-3ZM6 11.999a1 1 0 1 1 0-2 1 1 0 0 1 0 2ZM12 14a3 3 0 1 1 0-6 3 3 0 0 1 0 6Zm9.53 4.53-2 2a.748.748 0 0 1-1.06 0l-2-2a.75.75 0 1 1 1.061-1.061l.72.72V15a.75.75 0 0 1 1.5 0v3.189l.72-.72a.75.75 0 1 1 1.059 1.061Z"/></svg>
